src/assets/images/marketplace.svg

<svg width="24" height="24" viewBox="0 0 24 24" fill="none" xmlns="http://www.w3.org/2000/svg">
<path d="M21.3446 9.67825C21.3239 9.63431 21.2988 9.59259 21.2696 9.55375C21.2475 9.44607 21.2179 9.34006 21.1811 9.2365C21.1766 9.2245 21.1721 9.2125 21.1661 9.2005L19.1013 4.45C19.0429 4.31619 18.9468 4.20234 18.8246 4.12241C18.7024 4.04247 18.5596 3.99993 18.4136 4H4.91359C4.7676 3.99993 4.62476 4.04247 4.50259 4.12241C4.38042 4.20234 4.28424 4.31619 4.22584 4.45L2.14834 9.23575C1.95055 9.73772 1.95055 10.296 2.14834 10.798C2.33943 11.2348 2.61626 11.6288 2.96242 11.9567C3.30859 12.2846 3.71705 12.5396 4.16359 12.7067V20.5C4.16359 20.6989 4.24261 20.8897 4.38326 21.0303C4.52391 21.171 4.71468 21.25 4.91359 21.25H18.4136C18.6125 21.25 18.8033 21.171 18.9439 21.0303C19.0846 20.8897 19.1636 20.6989 19.1636 20.5V12.7067C19.61 12.5398 20.0184 12.285 20.3646 11.9574C20.7107 11.6298 20.9876 11.2361 21.1788 10.7995C21.2407 10.6417 21.2817 10.4766 21.3011 10.3083C21.3511 10.2118 21.3808 10.1061 21.3883 9.99777C21.3958 9.88939 21.3809 9.78064 21.3446 9.67825ZM9.41359 19.75V15.25H10.9136V19.75H9.41359ZM12.4136 19.75V15.25H13.9136V19.75H12.4136ZM17.6636 19.75H15.4136V14.5C15.4136 14.3011 15.3346 14.1103 15.1939 13.9697C15.0533 13.829 14.8625 13.75 14.6636 13.75H8.66359C8.46468 13.75 8.27391 13.829 8.13326 13.9697C7.99261 14.1103 7.91359 14.3011 7.91359 14.5V19.75H5.66359V13C6.2318 13.0071 6.7947 12.89 7.3129 12.6568C7.8311 12.4236 8.29209 12.08 8.66359 11.65C9.03933 12.075 9.50109 12.4153 10.0183 12.6484C10.5355 12.8815 11.0963 13.0021 11.6636 13.0021C12.2309 13.0021 12.7917 12.8815 13.3089 12.6484C13.8261 12.4153 14.2879 12.075 14.6636 11.65C15.0351 12.08 15.4961 12.4236 16.0143 12.6568C16.5325 12.89 17.0954 13.0071 17.6636 13V19.75ZM19.7913 10.225C19.5995 10.6217 19.2959 10.9538 18.9179 11.1803C18.5399 11.4068 18.1039 11.5179 17.6636 11.5C17.1177 11.5444 16.5762 11.3728 16.1555 11.0222C15.7347 10.6716 15.4684 10.1699 15.4136 9.625C15.4136 9.42609 15.3346 9.23532 15.1939 9.09467C15.0533 8.95402 14.8625 8.875 14.6636 8.875C14.4647 8.875 14.2739 8.95402 14.1333 9.09467C13.9926 9.23532 13.9136 9.42609 13.9136 9.625C13.8588 10.1699 13.5924 10.6716 13.1717 11.0222C12.751 11.3728 12.2095 11.5444 11.6636 11.5C11.1177 11.5444 10.5762 11.3728 10.1555 11.0222C9.73475 10.6716 9.46836 10.1699 9.41359 9.625C9.41359 9.42609 9.33457 9.23532 9.19392 9.09467C9.05327 8.95402 8.8625 8.875 8.66359 8.875C8.46468 8.875 8.27391 8.95402 8.13326 9.09467C7.99261 9.23532 7.91359 9.42609 7.91359 9.625C7.85882 10.1699 7.59244 10.6716 7.1717 11.0222C6.75097 11.3728 6.20947 11.5444 5.66359 11.5C5.22316 11.518 4.78707 11.4069 4.40893 11.1804C4.03079 10.9539 3.72706 10.6218 3.53509 10.225C3.48483 10.0867 3.48483 9.93508 3.53509 9.79675L5.40559 5.5H17.9216L19.7793 9.775C19.8374 9.91866 19.8417 10.0784 19.7913 10.225Z" fill="black" fill-opacity="0.6"/>
</svg>

<svg width="24" height="24" viewBox="0 0 24 24" fill="none" xmlns="http://www.w3.org/2000/svg">
    <path d="M21.345 9.678a.712.712 0 0 0-.075-.124 2.371 2.371 0 0 0-.089-.318l-.015-.036-2.065-4.75a.75.75 0 0 0-.687-.45h-13.5a.75.75 0 0 0-.688.45L2.148 9.236a2.13 2.13 0 0 0 0 1.562 3.563 3.563 0 0 0 2.016 1.909V20.5a.75.75 0 0 0 .75.75h13.5a.75.75 0 0 0 .75-.75v-7.793a3.563 3.563 0 0 0 2.015-1.908 1.96 1.96 0 0 0 .122-.49.794.794 0 0 0 .044-.63zM9.414 19.75v-4.5h1.5v4.5h-1.5zm3 0v-4.5h1.5v4.5h-1.5zm5.25 0h-2.25V14.5a.75.75 0 0 0-.75-.75h-6a.75.75 0 0 0-.75.75v5.25h-2.25V13a3.9 3.9 0 0 0 3-1.35 4.004 4.004 0 0 0 6 0 3.9 3.9 0 0 0 3 1.35v6.75zm2.127-9.525a2.261 2.261 0 0 1-2.127 1.275 2.09 2.09 0 0 1-2.25-1.875.75.75 0 1 0-1.5 0 2.091 2.091 0 0 1-2.25 1.875 2.09 2.09 0 0 1-2.25-1.875.75.75 0 0 0-1.5 0 2.09 2.09 0 0 1-2.25 1.875 2.262 2.262 0 0 1-2.129-1.275.627.627 0 0 1 0-.428L5.405 5.5h12.517l1.857 4.275a.643.643 0 0 1 .012.45z" fill="#000" fill-opacity=".6"/>
</svg>
